X:7560
T:Tiens-toi raide
O:england
C:Repertori 57
M:3/8
L:1/16
K:C
G2|c2Bcde|d2g2ag|f3dec|B2G2G2|\
c2Bcde|d2g2ag|f2e2d2|g4:|
|:eg|fedefd|edc2c2|Bcdede|f2d2eg|\
fedefd|edc2c2|BcdedB|c4:|
|:G2|c2B2A2|G4c2|Bcd2f2|e2c2G2|\
c2B2A2|G4c2|Bcd2B2|c4:|


